!!!COM: Gabriel Faure/
!!!CNT: Francais
!!!TXO: Francais
!!!OTL: Les Pre/sents
!!!LYR: Auguste, Comte de Villiers de L'isle-Adam
!!!OPS: Op. 46
!!!ONM: No. 1
!!!ENC: Jacob Pegg
!!!YOR: Album of Twenty Songs (Vingt Me/lodies,) Volume II
!!!YOR: Edward B. Marks Music Corporation, RCA Building, Radio
!!!YOR: City, New York 20, N.Y.
!!!ODT: 1887/
!!NB: Vocal melody and text only encoded.
!!NB: First instance of melodic material only encoded.
**kern	**silbe
*clef G2	*
*k[b-]	*
*M2/4	*
*MM52	*
!!created: 2/27/04 5:04 PM
!!proofed and posted: 2/29/04 11:39 PM
!!edit time: 19 min.
=5	=5
{8f	{Si
16g	tu
16a	de-
8.cc	-man-
16dd	-des
=6	=6
16cc	quel-
16b-	-que
4a-	soir
16f	Le
16g	se-
=7	=7
8an	-cret
16cc	de
16dd	mon
8.cc	coeur
16dd	ma-
=8	=8
4ee-	-la-
4ee-}	-de,}
=9	=9
{8een	{Je
16een	te
16ff	di-
[4een	-rai
=10	=10
16een]	|
16cc	pour
16bn	t'e/-
16a	-mou-
4a}	-voir,}
=11	=11
{16a	{U-
16ee-	-ne
16dd	tre\s
16cc	an-
8dd	-cien-
16a	-ne
16g	ba-
=12	=12
4f	-la-
4f}	-de!}
=13	=13
2r	.
=14	=14
{8f	{Si
16g	tu
16a	me
8.cc	par-
16dd	-les
=15	=15
16cc	de
16b-	tour-
4a-	-ments,
16b-	D'es-
16cc	-pe/-
=16	=16
4dd	-ran-
16an	-ce
16an	de/-
16g	-sa-
16f	-bu-
=17	=17
4b-	-se/-
8b-}	-e,}
16r	.
{16b-	{J'i-
=18	=18
8cc-	-rai
16dd-	te
16ee-	cueil-
8g-	-lir
16a-	seu-
16b-	-le-
=19	=19
4.ccn}	-ment}
{8ccn	{des
=20	=20
8.ee-	ro-
16ddn	-ses
16cc	plei-
16b-	-nes
16a-	de
16b-	ro-
=21	=21
4cc	-se/-
[4cc	-e!
=22	=22
8cc]}	|}
8r	.
4r	.
=23	=23
2r	.
=24	=24
{8.f	{Si,
16g	pa-
8a	-reille
16cc	a\
16dd	la
=25	=25
16cc	fleur
16b-	des
4a-	morts
16a-	Qui
16b-	fleu-
=26	=26
8cc	-rit
16ee-	dans
16ff	l'ex-
8.ee-	-il
16ff	des
=27	=27
4gg-	tom-
8gg-}	-bes,}
16r	.
{16ee-	{Tu
=28	=28
8gg-	veux
16ff	par-
16ee	-ta-
8ee	-ger
16dd-	mes
16cc	re-
=29	=29
2gg-}	-mords,}
=30	=30
{16dd-	{Je
16gg-	t'ap-
16ff	-por-
16ee-	-te-
8dd-	-rai
16cc	des
16b-	co-
=31	=31
2an	-lom-
=32	=32
2a}	-bes!}
*-	*-
